icons/react.svg

<?xml version="1.0" encoding="UTF-8"?>
<svg viewBox="0 0 144 128" xmlns="http://www.w3.org/2000/svg">
<path d="m143.82 64.015c0-9.5216-11.931-18.545-30.224-24.141 4.221-18.633 2.345-33.458-5.922-38.204-1.905-1.1133-4.133-1.6407-6.567-1.6407v6.5333c1.349 0 2.434 0.26368 3.342 0.76173 3.987 2.2852 5.717 10.986 4.368 22.178-0.322 2.7539-0.85 5.6544-1.495 8.6134-5.746-1.4063-12.019-2.4903-18.615-3.1934-3.9576-5.42-8.0618-10.342-12.195-14.649 9.5569-8.877 18.528-13.74 24.625-13.74v-6.5333c-8.0621 0-18.616 5.7423-29.286 15.703-10.671-9.9025-21.224-15.586-29.286-15.586v6.5333c6.0683 0 15.068 4.834 24.625 13.653-4.1042 4.3067-8.2084 9.1994-12.107 14.619-6.6254 0.7031-12.899 1.7871-18.645 3.2227-0.6743-2.9297-1.1727-5.7716-1.5245-8.4962-1.3778-11.192 0.3225-19.893 4.2801-22.207 0.8795-0.52735 2.0228-0.76173 3.3713-0.76173v-6.5333c-2.4625 0-4.6905 0.52735-6.6253 1.6407-8.2377 4.7462-10.085 19.541-5.8338 38.116-18.234 5.6251-30.107 14.619-30.107 24.112 0 9.5217 11.931 18.545 30.224 24.141-4.2215 18.633-2.3453 33.457 5.9217 38.203 1.9055 1.114 4.1335 1.641 6.596 1.641 8.0618 0 18.615-5.742 29.286-15.703 10.671 9.902 21.224 15.586 29.287 15.586 2.462 0 4.69-0.528 6.625-1.641 8.238-4.746 10.084-19.541 5.834-38.116 18.175-5.5958 30.048-14.619 30.048-24.112zm-38.169-19.541c-1.084 3.7794-2.433 7.6759-3.957 11.572-1.202-2.3438-2.4628-4.6876-3.8406-7.0314-1.3485-2.3438-2.785-4.629-4.2215-6.8556 4.1629 0.6153 8.1791 1.377 12.019 2.3145zm-13.426 31.202c-2.2866 3.9551-4.6319 7.7052-7.0651 11.192-4.368 0.3808-8.7946 0.5859-13.251 0.5859-4.4266 0-8.8533-0.2051-13.192-0.5566-2.4332-3.4864-4.8078-7.2072-7.0944-11.133-2.228-3.838-4.2507-7.7345-6.0976-11.66 1.8176-3.9258 3.8696-7.8516 6.0683-11.69 2.2866-3.9551 4.6319-7.7052 7.0651-11.192 4.368-0.3808 8.7946-0.5859 13.251-0.5859 4.4267 0 8.8533 0.2051 13.192 0.5566 2.4332 3.4864 4.8078 7.2072 7.0944 11.133 2.228 3.838 4.2507 7.7345 6.0976 11.66-1.8469 3.9259-3.8696 7.8517-6.0683 11.69zm9.4692-3.8087c1.583 3.9259 2.931 7.8517 4.045 11.66-3.84 0.9375-7.8856 1.7285-12.078 2.3437 1.4364-2.2559 2.8729-4.5703 4.2214-6.9434 1.3485-2.3438 2.6093-4.7169 3.8113-7.0607zm-29.726 31.261c-2.7263-2.813-5.4527-5.9478-8.1497-9.3756 2.6384 0.1172 5.3354 0.2051 8.0618 0.2051 2.7557 0 5.482-0.0586 8.1497-0.2051-2.6384 3.4278-5.3647 6.5626-8.0618 9.3756zm-21.811-17.257c-4.1628-0.6152-8.179-1.3769-12.019-2.3144 1.0846-3.7794 2.4332-7.6759 3.9576-11.572 1.2019 2.3438 2.4625 4.6876 3.8403 7.0314s2.785 4.6289 4.2214 6.8555zm21.664-60.968c2.7263 2.8126 5.4526 5.9474 8.1497 9.3752-2.6384-0.1172-5.3354-0.2051-8.0618-0.2051-2.7557 0-5.482 0.0586-8.1497 0.2051 2.6384-3.4278 5.3647-6.5626 8.0618-9.3752zm-21.694 17.256c-1.4364 2.2559-2.8729 4.5704-4.2214 6.9435-1.3485 2.3438-2.6091 4.6876-3.811 7.0314-1.5831-3.9259-2.9316-7.8517-4.0456-11.66 3.8404-0.9082 7.8859-1.6992 12.078-2.3145zm-26.531 36.68c-10.378-4.4239-17.091-10.225-17.091-14.824 0-4.5996 6.7132-10.43 17.091-14.824 2.5212-1.084 5.2768-2.0508 8.1204-2.959 1.671 5.7422 3.8697 11.719 6.5961 17.842-2.6971 6.0939-4.8664 12.041-6.5081 17.754-2.9022-0.9082-5.6579-1.9043-8.2084-2.9883zm15.772 41.866c-3.9869-2.285-5.7165-10.987-4.368-22.178 0.3225-2.754 0.8502-5.6544 1.4951-8.6134 5.7458 1.4062 12.019 2.4902 18.615 3.1934 3.9576 5.42 8.0618 10.342 12.195 14.649-9.5569 8.877-18.528 13.74-24.625 13.74-1.3192-0.029-2.4332-0.293-3.3127-0.791zm69.536-22.325c1.378 11.192-0.322 19.893-4.28 22.208-0.879 0.527-2.023 0.762-3.371 0.762-6.0683 0-15.068-4.835-24.625-13.653 4.1042-4.307 8.2084-9.1994 12.107-14.619 6.6254-0.7031 12.899-1.7871 18.645-3.2227 0.674 2.959 1.202 5.8008 1.524 8.5255zm11.287-19.541c-2.521 1.084-5.277 2.0508-8.121 2.959-1.671-5.7423-3.869-11.719-6.596-17.842 2.697-6.0938 4.867-12.041 6.508-17.754 2.903 0.9082 5.658 1.9043 8.238 2.9883 10.378 4.4239 17.091 10.225 17.091 14.824-0.029 4.5997-6.742 10.43-17.12 14.824z" fill="#61DAFB"/>
<path d="m71.882 77.404c7.399 0 13.397-5.9944 13.397-13.389 0-7.3944-5.9982-13.389-13.397-13.389-7.3991 0-13.397 5.9944-13.397 13.389 0 7.3945 5.9981 13.389 13.397 13.389z" fill="#61DAFB"/>
</svg>

<svg width="144" height="128" viewBox="0 0 144 128" fill="none" xmlns="http://www.w3.org/2000/svg">
<path d="M143.822 64.0146C143.822 54.493 131.891 45.4694 113.598 39.8737C117.819 21.2406 115.943 6.41611 107.676 1.66995C105.771 0.556648 103.543 0.0292969 101.109 0.0292969V6.5626C102.458 6.5626 103.543 6.82628 104.451 7.32433C108.438 9.60952 110.168 18.3108 108.819 29.5024C108.497 32.2563 107.969 35.1568 107.324 38.1158C101.578 36.7095 95.3049 35.6255 88.7089 34.9224C84.7513 29.5024 80.6471 24.5805 76.5136 20.2737C86.0705 11.3967 95.0411 6.5333 101.139 6.5333V0C93.0769 0 82.5233 5.74228 71.8525 15.7034C61.1816 5.80087 50.628 0.11719 42.5662 0.11719V6.65049C48.6345 6.65049 57.6344 11.4845 67.1913 20.303C63.0871 24.6097 58.9829 29.5024 55.084 34.9224C48.4586 35.6255 42.1851 36.7095 36.4393 38.1451C35.765 35.2154 35.2666 32.3735 34.9148 29.6489C33.537 18.4573 35.2373 9.75601 39.1949 7.44152C40.0744 6.91417 41.2177 6.67979 42.5662 6.67979V0.146487C40.1037 0.146487 37.8757 0.673838 35.9409 1.78714C27.7032 6.5333 25.8563 21.3284 30.1071 39.9029C11.8728 45.528 0 54.5223 0 64.0146C0 73.5363 11.9314 82.5598 30.2244 88.1556C26.0029 106.789 27.8791 121.613 36.1461 126.359C38.0516 127.473 40.2796 128 42.7421 128C50.8039 128 61.3575 122.258 72.0284 112.297C82.6992 122.199 93.2528 127.883 101.315 127.883C103.777 127.883 106.005 127.355 107.94 126.242C116.178 121.496 118.024 106.701 113.774 88.1263C131.949 82.5305 143.822 73.507 143.822 64.0146ZM105.653 44.4733C104.569 48.2527 103.22 52.1492 101.696 56.0458C100.494 53.702 99.2332 51.3582 97.8554 49.0144C96.5069 46.6706 95.0704 44.3854 93.6339 42.1588C97.7968 42.7741 101.813 43.5358 105.653 44.4733ZM92.2268 75.675C89.9402 79.6301 87.5949 83.3802 85.1617 86.8666C80.7937 87.2474 76.3671 87.4525 71.9111 87.4525C67.4845 87.4525 63.0578 87.2474 58.7191 86.8959C56.2859 83.4095 53.9113 79.6887 51.6247 75.7629C49.3967 71.9249 47.374 68.0284 45.5271 64.1025C47.3447 60.1767 49.3967 56.2509 51.5954 52.4129C53.882 48.4578 56.2273 44.7077 58.6605 41.2213C63.0285 40.8405 67.4551 40.6354 71.9111 40.6354C76.3378 40.6354 80.7644 40.8405 85.1031 41.192C87.5363 44.6784 89.9109 48.3992 92.1975 52.325C94.4255 56.163 96.4482 60.0595 98.2951 63.9853C96.4482 67.9112 94.4255 71.837 92.2268 75.675ZM101.696 71.8663C103.279 75.7922 104.627 79.718 105.741 83.5267C101.901 84.4642 97.8554 85.2552 93.6633 85.8704C95.0997 83.6145 96.5362 81.3001 97.8847 78.927C99.2332 76.5832 100.494 74.2101 101.696 71.8663ZM71.9697 103.127C69.2434 100.314 66.517 97.1792 63.82 93.7514C66.4584 93.8686 69.1554 93.9565 71.8818 93.9565C74.6375 93.9565 77.3638 93.8979 80.0315 93.7514C77.3931 97.1792 74.6668 100.314 71.9697 103.127ZM50.1589 85.8704C45.9961 85.2552 41.9799 84.4935 38.1396 83.556C39.2242 79.7766 40.5728 75.8801 42.0972 71.9835C43.2991 74.3273 44.5597 76.6711 45.9375 79.0149C47.3153 81.3587 48.7225 83.6438 50.1589 85.8704ZM71.8232 24.9027C74.5495 27.7153 77.2758 30.8501 79.9729 34.2779C77.3345 34.1607 74.6375 34.0728 71.9111 34.0728C69.1554 34.0728 66.4291 34.1314 63.7614 34.2779C66.3998 30.8501 69.1261 27.7153 71.8232 24.9027ZM50.1296 42.1588C48.6932 44.4147 47.2567 46.7292 45.9082 49.1023C44.5597 51.4461 43.2991 53.7899 42.0972 56.1337C40.5141 52.2078 39.1656 48.282 38.0516 44.4733C41.892 43.5651 45.9375 42.7741 50.1296 42.1588ZM23.599 78.8391C13.2213 74.4152 6.50806 68.6143 6.50806 64.0146C6.50806 59.415 13.2213 53.5848 23.599 49.1902C26.1202 48.1062 28.8758 47.1394 31.7194 46.2312C33.3904 51.9734 35.5891 57.9501 38.3155 64.0732C35.6184 70.1671 33.4491 76.1144 31.8074 81.8274C28.9052 80.9192 26.1495 79.9231 23.599 78.8391ZM39.3708 120.705C35.3839 118.42 33.6543 109.718 35.0028 98.5269C35.3253 95.7729 35.853 92.8725 36.4979 89.9135C42.2437 91.3197 48.5173 92.4037 55.1133 93.1069C59.0709 98.5269 63.1751 103.449 67.3086 107.756C57.7517 116.633 48.7811 121.496 42.6835 121.496C41.3643 121.467 40.2503 121.203 39.3708 120.705ZM108.907 98.3804C110.285 109.572 108.585 118.273 104.627 120.588C103.748 121.115 102.604 121.35 101.256 121.35C95.1877 121.35 86.1878 116.515 76.6309 107.697C80.7351 103.39 84.8393 98.4976 88.7382 93.0776C95.3636 92.3745 101.637 91.2905 107.383 89.8549C108.057 92.8139 108.585 95.6557 108.907 98.3804ZM120.194 78.8391C117.673 79.9231 114.917 80.8899 112.073 81.7981C110.402 76.0558 108.204 70.0792 105.477 63.956C108.174 57.8622 110.344 51.9148 111.985 46.2019C114.888 47.1101 117.643 48.1062 120.223 49.1902C130.601 53.6141 137.314 59.415 137.314 64.0146C137.285 68.6143 130.572 74.4445 120.194 78.8391Z" fill="#61DAFB"/>
<path d="M71.8818 77.4035C79.2808 77.4035 85.279 71.4091 85.279 64.0146C85.279 56.6202 79.2808 50.6258 71.8818 50.6258C64.4827 50.6258 58.4846 56.6202 58.4846 64.0146C58.4846 71.4091 64.4827 77.4035 71.8818 77.4035Z" fill="#61DAFB"/>
</svg>
